X:1
T:Walking with Jesus
T:Walking with Jesus
T:Lewis Edgar Jones
T:Mattie Alice Jones, ca. 1904
T:Public Domain Courtesy of the Cyber Hymnal™
T:Public Domain Courtesy of the Cyber Hymnal™
C:Lewis Edgar Jones
Z:Public Domain
Z:Courtesy of the Cyber Hymnal™
%%score ( 1 2 ) ( 3 4 )
L:1/8
Q:1/4=90
M:4/4
K:G
V:1 treble 
V:2 treble 
V:3 bass 
V:4 bass 
V:1
 [DB]>[DB] [Ec]>[DB] [EA]>[CE] [DF]>[CE] | D2 [Ec]2 [Dc]4 | %2
w: 1.~Walk- ing with the Sav- ior, Walk- ing|in the light,|
w: 2.~Walk- ing close to Je- sus, With Him|ev- er near,|
w: 3.~Walk- ing with the Sav- ior, May I|do His will,|
 D>[^CE] [DF]>[DG] [FA]>[A=c] [GB]>[DA] | [DG]2 [DB]2 [GB]4 | %4
w: Keep- ing in the path- way Of the|truth and right;|
w: I have but to trust Him, There is|naught to fear;|
w: With His love and mer- cy, He my|heart will fill;|
 [Gd]>[Gd] [Ge]>[Gd] [GB]>G [Dc]>[DB] | [EA]2 [EB]2 [Ec]4 | %6
w: Lead- ing out of dark- ness When I|go a- stray,|
w: And His love shall shield me, In Him|life is all,|
w: Walk- ing in His path- way, Life is|ev- er bright|
 [CE]>[CG] [^A,F]>[A,E] [B,D]>[DG] [E=A]>[Ec] | [DB]2 [CA]2 [B,G]4 ||"^Refrain" [DB]6 [B,G]>[CE] | %9
w: I will walk with Je- sus, He will|show the way.|Near to the|
w: With His arms a- bout me I can|ne- ver fall.||
w: All is peace and glo- ry, Love and|joy and light.||
 [B,D]4 [DG]4 | [DA]6 [DG]>[DA] | [DB]6 z2 | [Gd]4- [Gd]>[DB] [Dc]>[DB] | %13
w: Sav- ior,|Safe in His|love,|Near- * er to the|
w: ||||
w: ||||
 [EA]4 !fermata![Ec]2 [EB][EA] | [DG]2 [B,D]2 [DB]3 [CA] | G6 z2 |] %16
w: Fa- ther In the|home for all a-|bove.|
w: |||
w: |||
V:2
 x8 | D2 x6 | D3/2 x13/2 | x8 | x11/2 G/ x2 | x8 | x8 | x8 || x8 | x8 | x8 | x8 | x8 | x8 | x8 | %15
 (B,B,CC B,2) x2 |] %16
V:3
 G,>G, G,>G, [C,G,]>[C,G,] [C,G,]>[C,G,] | [B,,G,]2 [A,,G,]2 [D,F,]4 | %2
w: ~ ~ ~ ~ ~ ~ ~ ~|~ ~ ~|
 [D,F,]>[D,G,] [D,A,]>[D,B,] [D,C]>[D,B,] [D,D]>[D,C] | [G,B,]2 G,2 [G,D]4 | %4
w: ~ ~ ~ ~ ~ ~ ~ ~|~ ~ ~|
 [G,B,]>[G,B,] [G,C]>[G,B,] [G,D]>[G,B,] [F,A,]>G, | [C,G,]2 [B,,^G,]2 [A,,A,]4 | %6
w: ~ ~ ~ ~ ~ ~ ~ ~|~ ~ ~|
 [C,G,]>[C,E,] [^C,G,]>[C,G,] [D,G,]>[B,,G,] [=C,G,]>[A,,G,] | [D,G,]2 [D,F,]2 [G,,G,]4 || %8
w: ~ ~ ~ ~ ~ ~ ~ ~|~ ~ ~|
 G,2 G,G, G,2 G,2 | [G,,G,]2 [G,,G,][G,,G,] [B,,G,]2 [B,,G,]2 | %10
w: Near to the Sav- ior,|Near to the Sav- ior,|
 [D,F,]2 [D,F,][D,F,] F,2 ([B,,G,][A,,F,]) | [G,,G,]2 [B,,G,][D,G,] G,2 z2 | %12
w: Safe in His love, yes, *|safe in His love,|
 [G,B,]2 [G,B,]2 [G,B,]2 [F,A,]>[G,B,] | [C,C]4 !fermata![A,,E]2 [B,,D][C,C] | %14
w: Near- er, near- er the|Fa- ther In the|
 [D,B,]2 [D,G,]2 [D,F,]3 [D,F,] | G,D,E,E, D,2 z2 |] %16
w: home for all, the|home for all a- bove.|
V:4
 G,>G, G,>G, x4 | x8 | x8 | x2 G,2 x4 | x15/2 G,/ | x8 | x8 | x8 || G,2 G,G, G,2 G,2 | x8 | %10
 x4 (D,C,) x2 | x4 G,2 x2 | x8 | x8 | x8 | G,,6 x2 |] %16

